curves_svg/disc_line.svg

<?xml version="1.0" encoding="UTF-8" standalone="no"?>
<!-- Created with Inkscape (http://www.inkscape.org/) -->

<svg
   width="210mm"
   height="297mm"
   viewBox="0 0 210 297"
   version="1.1"
   id="svg5"
   inkscape:version="1.1.1 (3bf5ae0d25, 2021-09-20)"
   sodipodi:docname="disc_line.svg"
   xmlns:inkscape="http://www.inkscape.org/namespaces/inkscape"
   xmlns:sodipodi="http://sodipodi.sourceforge.net/DTD/sodipodi-0.dtd"
   xmlns="http://www.w3.org/2000/svg"
   xmlns:svg="http://www.w3.org/2000/svg">
  <sodipodi:namedview
     id="namedview7"
     pagecolor="#505050"
     bordercolor="#eeeeee"
     borderopacity="1"
     inkscape:pageshadow="0"
     inkscape:pageopacity="0"
     inkscape:pagecheckerboard="0"
     inkscape:document-units="mm"
     showgrid="false"
     inkscape:zoom="1.4681257"
     inkscape:cx="364.06964"
     inkscape:cy="180.84283"
     inkscape:window-width="1920"
     inkscape:window-height="1009"
     inkscape:window-x="-8"
     inkscape:window-y="-8"
     inkscape:window-maximized="1"
     inkscape:current-layer="layer1" />
  <defs
     id="defs2" />
  <g
     inkscape:label="Layer 1"
     inkscape:groupmode="layer"
     id="layer1">
    <path
       id="path868"
       style="fill:#0000ff;stroke-width:16.4345"
       d="M 179.52734 0.23632812 C 131.10349 2.6211506 87.470937 23.228282 55.349609 55.349609 C 21.151613 89.547606 1.8947806e-14 136.79218 0 188.97656 C -2.8189343e-15 220.03121 7.5375235 249.30881 20.810547 275.15625 L 118.78906 218.58789 A 9.4488189 9.4488189 0 0 1 131.69531 222.04688 A 9.4488189 9.4488189 0 0 1 128.23828 234.95508 L 30.273438 291.51562 C 37.543832 302.74496 45.930385 313.18429 55.349609 322.60352 C 89.547606 356.80151 136.79218 377.95313 188.97656 377.95312 C 241.16095 377.95312 288.40552 356.80151 322.60352 322.60352 C 332.02274 313.18429 340.40929 302.74496 347.67969 291.51562 L 249.71484 234.95508 A 9.4488188 9.4488188 0 0 1 246.25586 222.04688 A 9.4488188 9.4488188 0 0 1 259.16406 218.58789 L 357.14258 275.15625 C 370.4156 249.30881 377.95313 220.03121 377.95312 188.97656 C 377.95312 136.79218 356.80151 89.547606 322.60352 55.349609 C 290.48219 23.228282 246.84964 2.6211506 198.42578 0.23632812 L 198.42578 113.38672 A 9.4488187 9.4488187 0 0 1 188.97656 122.83398 A 9.4488187 9.4488187 0 0 1 179.52734 113.38672 L 179.52734 0.23632812 z "
       transform="scale(0.26458333)" />
  </g>
</svg>

<?xml version="1.0" encoding="UTF-8" standalone="no"?>
<!-- Created with Inkscape (http://www.inkscape.org/) -->

<svg
   width="210mm"
   height="297mm"
   viewBox="0 0 210 297"
   version="1.1"
   id="svg5"
   inkscape:version="1.2.1 (9c6d41e410, 2022-07-14)"
   sodipodi:docname="disc_line.svg"
   xmlns:inkscape="http://www.inkscape.org/namespaces/inkscape"
   xmlns:sodipodi="http://sodipodi.sourceforge.net/DTD/sodipodi-0.dtd"
   xmlns="http://www.w3.org/2000/svg"
   xmlns:svg="http://www.w3.org/2000/svg">
  <sodipodi:namedview
     id="namedview7"
     pagecolor="#505050"
     bordercolor="#eeeeee"
     borderopacity="1"
     inkscape:pageshadow="0"
     inkscape:pageopacity="0"
     inkscape:pagecheckerboard="0"
     inkscape:document-units="mm"
     showgrid="false"
     inkscape:zoom="1.4681257"
     inkscape:cx="364.41021"
     inkscape:cy="181.1834"
     inkscape:window-width="1920"
     inkscape:window-height="1009"
     inkscape:window-x="-8"
     inkscape:window-y="-8"
     inkscape:window-maximized="1"
     inkscape:current-layer="layer1"
     inkscape:showpageshadow="2"
     inkscape:deskcolor="#505050" />
  <defs
     id="defs2" />
  <g
     inkscape:label="Layer 1"
     inkscape:groupmode="layer"
     id="layer1">
    <path
       id="path868"
       style="fill:#0000ff;stroke-width:16.4345"
       d="M 179.52734,0.23632812 C 103.12941,10.045638 41.800155,49.762792 14.850556,115.41819 c -22.0013326,53.60029 -18.3542366,111.3469 5.959991,159.73806 32.659504,-18.85612 65.318716,-37.71275 97.978513,-56.56836 4.51889,-2.60891 10.2969,-1.05965 12.90625,3.45899 2.60973,4.5193 1.06245,10.29879 -3.45703,12.9082 -32.654752,18.85385 -65.309895,37.70703 -97.964842,56.56054 34.831055,52.84118 106.225552,89.23219 158.703122,86.4375 69.23288,-3.687 124.4367,-33.96224 158.70313,-86.4375 -32.65495,-18.85351 -65.30969,-37.7074 -97.96485,-56.56054 -4.51978,-2.60945 -6.06839,-8.38839 -3.45898,-12.9082 2.60941,-4.51981 8.38846,-6.06852 12.9082,-3.45899 32.65939,18.85632 65.31901,37.71224 97.97852,56.56836 24.48207,-52.77791 27.21134,-109.65021 5.95999,-159.73806 C 334.75728,48.610455 261.1753,4.2326782 198.42578,0.23632812 c 0,37.71679688 7.6e-4,75.43359488 0,113.15039188 -1e-4,5.21799 -4.23123,9.44726 -9.44922,9.44726 -5.21799,0 -9.44912,-4.22927 -9.44922,-9.44726 -7.6e-4,-37.716797 0,-75.433595 0,-113.15039188 z"
       transform="scale(0.26458333)"
       sodipodi:nodetypes="cscssscscssscscsssc" />
  </g>
</svg>
